X: 079
T: the Hot Bath
B: 204 Favourite Country Dances
N: Published by Straight & Skillern, London ca.1775
F: http://imslp.org/wiki/204_Favourite_Country_Dances_(Various) p.40 #79
Z: 2014 John Chambers <jc:trillian.mit.edu>
M: 6/8
L: 1/8
K: D
% - - - - - - - - - - - - - - - - - - - - - - - - -
|:\
dfa gec | dfa gec | dfd Bge | ced cBA |\
dfa gec | dfa gec | dfd Bge |TcBc d2 :|
|:\
FGA AB=c | B^cd cde | dAd eAe | fdf {f}e3 |\
FGA AB=c | Bcd cde | eag fed | TcBc {c}d3 :|
% - - - - - - - - - - - - - - - - - - - - - - - - -
%%begintext align
%% The 1st Cu. cast off 1 Cu. hands round with the 3d
%% Cu. .| cast up & hands round with the 2d Cu. :| lead
%% down 2 Cu. up again & cast off .|. lead thro' the 3d
%% Cu. & cast up Right & Left at top :|
%%endtext

%%sep 1 1 500
%%sep 1 1 500
